app/assets/images/icon.svg

<?xml version="1.0" encoding="UTF-8" standalone="no"?>
<svg width="51px" height="50px" viewBox="0 0 51 50" version="1.1" xmlns="http://www.w3.org/2000/svg" xmlns:xlink="http://www.w3.org/1999/xlink" xmlns:sketch="http://www.bohemiancoding.com/sketch/ns">
    <!-- Generator: Sketch 3.2.2 (9983) - http://www.bohemiancoding.com/sketch -->
    <title>LOGO</title>
    <desc>Created with Sketch.</desc>
    <defs></defs>
    <g id="Page-1" stroke="none" stroke-width="1" fill="none" fill-rule="evenodd" sketch:type="MSPage">
        <path d="M40.6286294,50 L1.33791175,50 C0.599305074,50 -3.55271368e-15,49.4127415 -3.55271368e-15,48.6883218 L-3.55271368e-15,1.31167814 C-3.55271368e-15,0.587553951 0.599003489,0 1.33791175,0 L49.6620882,0 C50.4006947,0 51,0.587258324 51,1.31167814 L51,21.9042139 C50.8062207,21.3165236 48.5365908,14.5928266 45.0294378,11.1781109 C41.3601037,7.60548893 34.7067741,4.68220542 35.6961594,7.03183828 C36.6855447,9.38147114 36.6855444,15.5019387 36.6855444,15.5019387 L26.7235855,19.3016174 L25.2293743,24.8282192 L13.0374269,28.0426393 C13.0374269,28.0426393 13.9062472,34.2611993 17.4106387,35.3480328 C19.6584502,36.0451572 34.3922408,37.6705283 34.3922408,37.6705283 L31.5951703,50 L40.6286294,50 L40.6286294,50 Z" id="LOGO" fill="#A873D1" sketch:type="MSShapeGroup"></path>
    </g>
</svg>

<svg width="51" height="50" viewBox="0 0 51 50" xmlns="http://www.w3.org/2000/svg"><title>Hound icon</title><path d="M40.63 50H1.337C.598 50 0 49.413 0 48.688V1.312C0 .588.6 0 1.338 0h48.324C50.402 0 51 .587 51 1.312v20.592c-.194-.587-2.463-7.31-5.97-10.726-3.67-3.573-10.323-6.496-9.334-4.146.99 2.35.99 8.47.99 8.47l-9.962 3.8-1.495 5.526-12.193 3.215s.87 6.218 4.374 7.305c2.248.697 16.982 2.323 16.982 2.323L31.595 50h9.034z" fill="#A873D1" fill-rule="evenodd"/></svg>
